X: 40693
T: Tornado Two Step, The
R: reel
M: 4/4
K: Dmajor
|:D2 FD A3 B|AFEF AFED|D2 FD A3 B|1 AFEF DB,A,B,:|2 AFEF (3DDD D2||
|:D2 AD d3 B|AFEF AFED|D2 FD d3 B|AFEF (3DDD D2:|
|:D2 FD dDFd|FdEd DdFd|D2 FD dDFd|F2 EF (3DDD D2:|

